resources/haticons/SVG/glassdoor.svg

<!-- Generated by IcoMoon.io -->
<svg version="1.1" xmlns="http://www.w3.org/2000/svg" width="24" height="24" viewBox="0 0 24 24">
<title>glassdoor</title>
<path fill="#0caa41" d="M17.144 20.572h-13.714c0 1.893 1.533 3.428 3.426 3.428h10.286c1.893 0 3.428-1.535 3.428-3.428v-14.080c0-0.070-0.054-0.125-0.124-0.125h-3.18c-0.067 0-0.123 0.056-0.123 0.126zM17.144 0c1.892 0 3.427 1.535 3.427 3.43h-13.713v14.078c0 0.068-0.056 0.125-0.125 0.125h-3.179c-0.070 0-0.125-0.057-0.125-0.125v-14.080c0.001-1.892 1.534-3.428 3.427-3.428h10.287z"></path>
</svg>

<svg xmlns="http://www.w3.org/2000/svg" width="24" height="24"><path fill="#0caa41" d="M17.144 20.572H3.43A3.427 3.427 0 0 0 6.856 24h10.286a3.428 3.428 0 0 0 3.428-3.428V6.492a.123.123 0 0 0-.124-.125h-3.18a.125.125 0 0 0-.123.126zm0-20.572a3.429 3.429 0 0 1 3.427 3.43H6.858v14.078a.126.126 0 0 1-.125.125H3.554a.125.125 0 0 1-.125-.125V3.428A3.429 3.429 0 0 1 6.856 0h10.287z"/></svg>
